src/assets/images/svg/logo.svg

<svg width="475" height="96" viewBox="0 0 475 96" fill="none" xmlns="http://www.w3.org/2000/svg">
<rect width="96" height="96" rx="9" fill="#2E85FF"/>
<path fill-rule="evenodd" clip-rule="evenodd" d="M54 27H42V42H27V54H42V69H54V54H69V42H54V27Z" fill="white"/>
<path fill-rule="evenodd" clip-rule="evenodd" d="M399.943 31.7593C397.348 31.7593 395.245 29.7905 395.245 27.3744C395.245 24.9358 397.348 22.967 399.943 22.967C402.516 22.967 404.618 24.9358 404.618 27.3744C404.618 29.7905 402.516 31.7593 399.943 31.7593ZM201.36 36.6364V42.9006H194.223V71H186.124V42.9006H181.046V36.6364H186.124V33.3925C186.124 26.4571 190.889 23.0342 196.863 23.0342C199.659 23.0342 201.964 23.6158 203.015 23.9738L201.382 30.238C200.711 30.0366 199.637 29.7458 198.362 29.7458C195.341 29.7458 194.223 31.2447 194.223 33.9294V36.6364H201.36ZM138.819 71V25.1819H130.519V71H138.819ZM154.496 71V50.8651C154.496 45.8985 157.494 43.0348 161.767 43.0348C165.951 43.0348 168.456 45.7866 168.456 50.3729V71H176.555L176.555 49.1201C176.577 40.8871 171.879 36.189 164.787 36.189C159.642 36.189 156.107 38.6499 154.541 42.4755H154.138V36.6364H146.397V71H154.496ZM203.859 54.0196C203.859 64.8029 210.19 71.6712 220.549 71.6712C228.558 71.6712 234.061 67.7561 235.493 61.7827L227.931 60.9326C226.835 63.8409 224.151 65.3622 220.661 65.3622C215.425 65.3622 211.958 61.9169 211.891 56.0331H235.829V53.5498C235.829 41.4912 228.58 36.189 220.124 36.189C210.28 36.189 203.859 43.4152 203.859 54.0196ZM211.913 50.5743H228.066C228.021 45.8985 224.889 42.4979 220.235 42.4979C215.403 42.4979 212.159 46.1893 211.913 50.5743ZM241.595 36.6364V71H249.693V50.798C249.693 46.4354 252.982 43.3481 257.434 43.3481C258.799 43.3481 260.499 43.5942 261.193 43.8179V36.368C260.454 36.2337 259.179 36.1442 258.284 36.1442C254.347 36.1442 251.058 38.3814 249.805 42.3637H249.447V36.6364H241.595ZM265.504 71V36.6364H273.245V42.4755H273.648C275.08 38.5604 278.525 36.189 283.134 36.189C287.765 36.189 291.098 38.5828 292.418 42.4755H292.776C294.297 38.6499 298.101 36.189 303.09 36.189C309.399 36.189 313.828 40.2607 313.828 47.9343V71H305.707V49.1872C305.707 44.9365 303.112 43.0125 299.846 43.0125C295.931 43.0125 293.626 45.6971 293.626 49.5675V71H285.684V48.8516C285.684 45.3168 283.335 43.0125 279.912 43.0125C276.422 43.0125 273.603 45.8761 273.603 50.1044V71H265.504ZM319.505 54.0196C319.505 64.8029 325.836 71.6712 336.194 71.6712C344.204 71.6712 349.707 67.7561 351.139 61.7827L343.577 60.9326C342.481 63.8409 339.796 65.3622 336.306 65.3622C331.071 65.3622 327.603 61.9169 327.536 56.0331H351.475V53.5498C351.475 41.4912 344.226 36.189 335.769 36.189C325.926 36.189 319.505 43.4152 319.505 54.0196ZM327.559 50.5743H343.711C343.667 45.8985 340.535 42.4979 335.881 42.4979C331.049 42.4979 327.805 46.1893 327.559 50.5743ZM355.831 53.863C355.831 65.1833 361.894 71.6041 369.993 71.6041C375.899 71.6041 378.561 68.0916 379.836 65.586H380.328V71H388.293V25.1819H380.172V42.3189H379.836C378.606 39.8356 376.078 36.189 370.015 36.189C362.073 36.189 355.831 42.4084 355.831 53.863ZM372.252 64.9595C377.42 64.9595 380.328 60.4851 380.328 53.8182C380.328 47.1513 377.465 42.8335 372.252 42.8335C366.86 42.8335 364.086 47.4198 364.086 53.8182C364.086 60.2614 366.905 64.9595 372.252 64.9595ZM403.97 36.6364H395.871V71H403.97V36.6364ZM409.736 53.9525C409.736 64.3555 415.933 71.6712 426.201 71.6712C434.837 71.6712 440.341 66.548 440.922 59.2546H433.182C432.488 62.9461 429.826 65.0714 426.269 65.0714C421.212 65.0714 417.946 60.8431 417.946 53.8182C417.946 46.8829 421.28 42.7216 426.269 42.7216C430.161 42.7216 432.555 45.2273 433.182 48.5384H440.922C440.363 41.0885 434.546 36.189 426.157 36.189C416.089 36.189 409.736 43.4599 409.736 53.9525ZM456.398 71.6936C449.843 71.6936 444.898 68.114 444.898 61.3576C444.898 53.6169 451.275 51.6257 457.941 50.9098C458.297 50.8718 458.64 50.8356 458.97 50.8007L458.974 50.8004C464.283 50.2402 466.443 50.0123 466.443 47.8225V47.6883C466.443 44.3101 464.385 42.3861 460.626 42.3861C456.666 42.3861 454.384 44.3995 453.579 46.7486L446.017 45.6748C447.807 39.4106 453.355 36.189 460.581 36.189C467.136 36.189 474.542 38.9184 474.542 48.0015V71H466.756V66.2795H466.488C465.011 69.1655 461.789 71.6936 456.398 71.6936ZM466.465 58.673C466.465 62.4986 463.378 65.7426 458.501 65.7426C455.123 65.7426 452.706 64.1989 452.706 61.2234C452.706 58.1137 455.413 56.8161 459.038 56.3015C459.152 56.2859 459.272 56.2696 459.398 56.2525C461.611 55.9521 465.47 55.4281 466.465 54.6236V58.673Z" fill="#112950"/>
</svg>

<svg width="475" height="96" fill="none" xmlns="http://www.w3.org/2000/svg"><rect width="96" height="96" rx="9" fill="#2E85FF"/><path fill-rule="evenodd" clip-rule="evenodd" d="M54 27H42v15H27v12h15v15h12V54h15V42H54V27Z" fill="#fff"/><path fill-rule="evenodd" clip-rule="evenodd" d="M399.943 31.76c-2.595 0-4.698-1.97-4.698-4.386 0-2.438 2.103-4.407 4.698-4.407 2.573 0 4.675 1.969 4.675 4.407 0 2.417-2.102 4.385-4.675 4.385ZM201.36 36.635V42.9h-7.137V71h-8.099V42.9h-5.078v-6.264h5.078v-3.244c0-6.935 4.765-10.358 10.739-10.358 2.796 0 5.101.582 6.152.94l-1.633 6.264c-.671-.201-1.745-.492-3.02-.492-3.021 0-4.139 1.499-4.139 4.183v2.707h7.137ZM138.819 71V25.182h-8.3V71h8.3Zm15.677 0V50.865c0-4.967 2.998-7.83 7.271-7.83 4.184 0 6.689 2.752 6.689 7.338V71h8.099V49.12c.022-8.233-4.676-12.931-11.768-12.931-5.145 0-8.68 2.46-10.246 6.286h-.403v-5.839h-7.741V71h8.099Zm49.363-16.98c0 10.783 6.331 17.651 16.69 17.651 8.009 0 13.512-3.915 14.944-9.888l-7.562-.85c-1.096 2.908-3.78 4.43-7.27 4.43-5.236 0-8.703-3.446-8.77-9.33h23.938V53.55c0-12.059-7.249-17.361-15.705-17.361-9.844 0-16.265 7.226-16.265 17.83Zm8.054-3.446h16.153c-.045-4.675-3.177-8.076-7.831-8.076-4.832 0-8.076 3.691-8.322 8.076Zm29.682-13.938V71h8.098V50.798c0-4.363 3.289-7.45 7.741-7.45 1.365 0 3.065.246 3.759.47v-7.45c-.739-.134-2.014-.224-2.909-.224-3.937 0-7.226 2.237-8.479 6.22h-.358v-5.728h-7.852ZM265.504 71V36.636h7.741v5.84h.403c1.432-3.916 4.877-6.287 9.486-6.287 4.631 0 7.964 2.394 9.284 6.286h.358c1.521-3.825 5.325-6.286 10.314-6.286 6.309 0 10.738 4.072 10.738 11.745V71h-8.121V49.187c0-4.25-2.595-6.174-5.861-6.174-3.915 0-6.22 2.684-6.22 6.555V71h-7.942V48.852c0-3.535-2.349-5.84-5.772-5.84-3.49 0-6.309 2.864-6.309 7.092V71h-8.099Zm54.001-16.98c0 10.783 6.331 17.651 16.689 17.651 8.01 0 13.513-3.915 14.945-9.888l-7.562-.85c-1.096 2.908-3.781 4.43-7.271 4.43-5.235 0-8.703-3.446-8.77-9.33h23.939V53.55c0-12.059-7.249-17.361-15.706-17.361-9.843 0-16.264 7.226-16.264 17.83Zm8.054-3.446h16.152c-.044-4.675-3.176-8.076-7.83-8.076-4.832 0-8.076 3.691-8.322 8.076Zm28.272 3.289c0 11.32 6.063 17.741 14.162 17.741 5.906 0 8.568-3.512 9.843-6.018h.492V71h7.965V25.182h-8.121v17.137h-.336c-1.23-2.483-3.758-6.13-9.821-6.13-7.942 0-14.184 6.22-14.184 17.674Zm16.421 11.097c5.168 0 8.076-4.475 8.076-11.142s-2.863-10.984-8.076-10.984c-5.392 0-8.166 4.586-8.166 10.984 0 6.443 2.819 11.142 8.166 11.142Zm31.718-28.324h-8.099V71h8.099V36.636Zm5.766 17.316c0 10.404 6.197 17.72 16.465 17.72 8.636 0 14.14-5.124 14.721-12.417h-7.74c-.694 3.691-3.356 5.816-6.913 5.816-5.057 0-8.323-4.228-8.323-11.253 0-6.935 3.334-11.096 8.323-11.096 3.892 0 6.286 2.505 6.913 5.816h7.74c-.559-7.45-6.376-12.349-14.765-12.349-10.068 0-16.421 7.27-16.421 17.764Zm46.662 17.742c-6.555 0-11.5-3.58-11.5-10.336 0-7.741 6.377-9.732 13.043-10.448l1.029-.11h.004c5.309-.56 7.469-.788 7.469-2.977v-.135c0-3.378-2.058-5.302-5.817-5.302-3.96 0-6.242 2.014-7.047 4.363l-7.562-1.074c1.79-6.264 7.338-9.486 14.564-9.486 6.555 0 13.961 2.73 13.961 11.813V71h-7.786v-4.72h-.268c-1.477 2.885-4.699 5.414-10.09 5.414Zm10.067-13.021c0 3.826-3.087 7.07-7.964 7.07-3.378 0-5.795-1.544-5.795-4.52 0-3.11 2.707-4.407 6.332-4.922l.36-.049c2.213-.3 6.072-.824 7.067-1.628v4.049Z" fill="#112950"/></svg>
